X: 4560
T: Boston-Sligo, The
R: reel
M: 4/4
K: Dmajor
|:FA|"D" BAFA BABd|"D" AFF2 "G" EDB,2|"D" BAFA "Bm" BAdB|"Em" AFDF "A7" E3A|
"D" BAFA B2dB|"D" AFF2 "G" EDB,E|"D" DA,A,2 "Bm" DEFA|"Em" dBAF "D" D2:|
|:de|"D" faa2 bafb|afdf "G" eBB2|"D" faa2 "Bm" bafa|"Em" bfdf "A7" efde|
[1 "D" faa2 bafb|"D" afdf "G" edBd|"D" DEFA "Bm" BAdB|"Em" BFEF "D" D2:|
[2 "D" faa2 "G" b3b|"D" afdf "G" eBB2|"D" DEFA "Em" BAdB|"A7" AFEF "D" D2||

